X:1
T:Mountain Meadows Massacre
M:4/4
L:1/4
K:F
 A| G3/2 F/2 D D| F3/2 G/2 A A| G3/2 F/2 D C| D3| C| F3/2 G/2 A c|\
 d3/2 d/2 c A| c3/2 c/2 cd/2-c/2| A3| C| F3/2 G/2 A c| d3/2- c/2 A A|\
 c3/2 c/2 cd/2-c/2| A3| A| G3/2 F/2 D D| F3/2 G/2 A A| G3/2 F/2 D C|\
 D3||
